public/assets/images/flash.svg

<svg xmlns:xlink="http://www.w3.org/1999/xlink" xmlns="http://www.w3.org/2000/svg" width="30" viewBox="0 0 30 29" fill="none" class="text-icon__icon" height="29" ><path d="M19.3153 2.80553C20.1606 2.80553 20.7834 3.6508 20.561 4.45158L18.1586 12.7708H21.9846C22.8298 12.7708 23.4972 13.4826 23.4972 14.3279C23.4972 14.8172 23.3192 15.2176 22.9633 15.5291L11.4409 25.3164C11.2185 25.4943 10.9516 25.5833 10.6402 25.5833C9.79489 25.5833 9.17206 24.7825 9.3945 23.9817L11.7968 15.618H7.9264C7.12562 15.618 6.45831 14.9507 6.45831 14.1499C6.45831 13.7051 6.63626 13.3047 6.94767 12.9932L18.5145 3.11694C18.737 2.93899 19.0039 2.80553 19.3153 2.80553ZM17.7137 6.587L9.66143 13.4826H13.2205C13.5319 13.4826 13.8433 13.6606 14.0657 13.9275C14.2437 14.1944 14.3327 14.5503 14.2437 14.8617L12.2417 21.8463L20.383 14.9062H16.7795C16.4236 14.9062 16.1122 14.7728 15.8897 14.5058C15.7118 14.2389 15.6228 13.883 15.7118 13.5716L17.7137 6.587Z" fill="#3D4148" class=""></path></svg>

<svg xmlns="http://www.w3.org/2000/svg" width="30" fill="none" class="text-icon__icon" height="29"><path d="M19.315 2.806c.846 0 1.468.845 1.246 1.646l-2.402 8.319h3.826c.845 0 1.512.712 1.512 1.557 0 .49-.178.89-.534 1.201l-11.522 9.787c-.223.178-.49.267-.8.267-.846 0-1.469-.8-1.246-1.601l2.402-8.364h-3.87c-.801 0-1.469-.667-1.469-1.468 0-.445.178-.845.49-1.157l11.567-9.876c.222-.178.489-.311.8-.311Zm-1.601 3.781L9.66 13.483h3.56c.31 0 .622.178.845.444.178.267.267.623.178.935l-2.002 6.984 8.141-6.94h-3.604a1.12 1.12 0 0 1-.89-.4c-.177-.267-.266-.623-.177-.934l2.002-6.985Z" fill="#3D4148"/></svg>
